X:140
T:Old Grist Mill Jig
R:jig
C:Bruce Osborne - Feb. 2003
Z:abc by bosborne@kos.net
M:6/8
L:1/8
K:Amaj
c/B/|Ace fec|aga c'ae|BAB dcB|Acf ecB|\
Ace fec|aga c'ae|BAB dcB|AcB A2:|
|:G/A/|BEE EGB|cAA AGA|BEE EGB|AEC A,2 G/A/|\
BEE EGB|cAA AGA|BEE EGB|cAE A2:|
